X:1
T:Dark Below, but Light Above
T:Dark Below, but Light Above
T:Merritt Jerome Munger, 1881
T:Anna Fales Peckham, 19th Century
T:Public Domain Courtesy of the Cyber Hymnal™
T:Public Domain Courtesy of the Cyber Hymnal™
T:Public Domain Courtesy of the Cyber Hymnal™
C:Merritt Jerome Munger, 1881
Z:Public Domain
Z:Courtesy of the Cyber Hymnal™
%%score 1 ( 2 3 ) 4
L:1/8
Q:1/4=90
M:4/4
K:Eb
V:1 treble 
V:2 treble 
V:3 treble 
V:4 bass 
V:1
"^Con expressione" G3 A =AcBG | e4 G4 | B3 A GF A>G | E6 z2 | G3 A =AcBG | e4 c4 | c3 d feG=A | %7
w: 1.~Thro’ the mists of sha- dows|drea- ry,|O’er the dark and stor- my|sea,|Came a voice of heav’n- ly|mu- sic,|Float- ing thro’ the gloom to|
w: 2.~Oft- en when life’s sha- dows|ga- ther|Round my wea- ry trou- bled|soul,|Comes that voice of an- gel|sweet- ness,|Whis- pering I am near the|
w: 3.~Soon I’ll reach those gold- en|por- tals,|Soon I’ll cross life’s trou- bled|sea,|Whence that voice of mu- sic|float- ing,|Came and whis- pered hope to|
 B6 z2 | d3 d dccB | e4 B4 | c3 e BGFE | F6 z2 | G3 A =AcBe | d4 c4 |"^rall." B3 G BA G>F | %15
w: me;|’Twas a voice of won- drous|sweet- ness,|Bring- ing words of hope and|love,|Whis- pering to my trou- bled|spir- it,|“Dark be- low, but light a-|
w: goal;|Tell- ing me, in sof- tened|mur- murs,|Bring- ing words of hope and|love,|Say- ing to my doubt- ing|spir- it,|“Dark be- low, but light a-|
w: me;|There in Heav’n’s own light for-|ev- er,|In that sun- light of God’s|love,|Shall I find that say- ing|truth- ful,|“Dark be- low, but light a-|
 E6 z2 ||"^Refrain" B3 B BBBB | (B2 e2) B4 | A3 A GBB=A | B6 z2 | B3 B BBBB | A4 A4 | G3 G FFAA | %23
w: bove.”||||||||
w: bove.”|’Twas a voice of won- drous|sweet- * ness,|Bring- ing words of hope and|love,|Whis- pering to my trou- bled|spir- it,|“Dark be- low, but light a-|
w: bove.”||||||||
 G6 z2 |] %24
w: |
w: bove.”|
w: |
V:2
"^Piano" z (B,[G,G]B,) z (B,[G,G]B,) | z (B,[G,G]B,) z (B,[G,G]B,) | z (B,[A,D]B,) z (B,[A,D]B,) | %3
 z (B,[G,E]B,) ([B,G][B,G][_D_G][A,F]) | z (B,[G,G]B,) z (B,[G,G]B,) | %5
 z ([A,CE][A,CE][A,CE]) z ([A,CE][A,CE][A,CE]) | z (F,[=A,E]F,) z (F,[A,E]F,) | %7
 ([A,DF]2 [B,DG]2 [CDFA]2) z2 | ([CF]D[CF]D) ([CF]D[CF]D) | ([B,G]D[B,G]D) ([B,G]D[B,G]D) | %10
 z ([A,CE][A,CE][A,CE]) z ([G,B,E][G,B,E][G,B,E]) | z ([A,B,D][A,B,D][A,B,D] [A,B,D]2) z2 | %12
 z (B,[G,E]B,) z (B,[G,E]B,) | z ([A,CF][A,CF][A,CF]) z ([_G,CE][G,CE][G,CE]) | %14
 z (B,[G,E]B,) z (B,[A,D]>B,) | [G,B,E]6 z2 ||"^Soprano" [DF]3 [DF] [DF][FA][FA][Ac] | %17
 [GB]4 [EG]4 | [Ec]3 [Ec] [EB][EG]F[EF] | [DF]6 z2 | [EG]3 [EG] [EB][EB][DA][EG] | %21
 (G2 F2) (C2 F2) | [B,E]3 [B,E] [B,E][B,D][B,C][B,D] | [B,E]6 z2 |] %24
V:3
 x8 | x8 | x8 | x8 | x8 | x8 | x8 | x8 | x8 | x8 | x8 | x8 | x8 | x8 | x8 | x8 || x8 | x8 | %18
 x6 F x | x8 | x8 | C4 C4 | x8 | x8 |] %24
V:4
"^Legato" G,,2 z2 E,2 z2 | E,,2 z2 E,2 z2 | B,,,2 z2 B,,2 z2 | D,,4 z (B,,C,D,) | %4
 [E,,E,]2 z2 E,,2 z2 | A,,2 z2 A,,2 z2 | F,,2 z2 F,,2 z2 | (B,,4 B,,,2) z2 | B,,,2 z2 B,,2 z2 | %9
 E,,2 z2 E,2 z2 | A,,2 z2 E,2 z2 | ([B,,,B,,]4 [B,,,B,,][B,,,B,,][C,,C,][D,,D,]) | E,,2 z2 E,2 z2 | %13
 A,,2 z2 =A,,2 z2 |"^rall e dim" B,,2 z2 B,,2 z2 | (E,4 E,,2) z2 || B,,3 B,, B,,B,,B,,D, | %17
 E,4 E,4 | A,3 A, E,E,D,C, | B,,6 z2 | E,3 E, G,G,F,E, | A,,4 A,,4 | B,,3 B,, B,,B,,B,,B,, | %23
 [E,,E,]6 z2 |] %24

